public/assets/contour_line.svg

<svg xmlns="http://www.w3.org/2000/svg" width="1500" height="720" preserveAspectRatio="none" xmlns:v="https://vecta.io/nano"><g mask="url(#A)" fill="none"><path fill="rgba(255, 255, 255, 1)" d="M0 0h1500v720H0z"/><g stroke="rgba(83, 86, 255, 0.57)" stroke-width="2"><path d="M843.33 0c16.63 54.88-84.65 105.91-68.78 180 12.46 58.15 72.28 84.49 125.45 84.49 34.49 0 20.12-45.72 49.88-84.49 60.24-78.47 64.83-150 130.12-150 65.63 0 78.27 67.54 131.71 150 36.56 56.41 1.57 118.01 48.29 127.74 67.42 14.04 91.6-36.97 180-80.19 42.25-20.65 81.29-24.26 81.29-47.55 0-22.98-44.36-17.16-81.29-45-82.46-62.16-157.5-96.63-157.5-135 0-29.13 78.75 0 157.5 0 72.69 0 86.04-21.98 145.38 0 30.66 11.36 27.72 30.79 34.62 66.67 10.41 54.12 0 56.67 0 113.33v180 180c0 90 45 135 0 180s-90 0-180 0h-180c-84.7 0-86.54 4.6-169.41 0-7.13-.4-5.18-10-10.59-10-5.69 0-4.1 9.58-11.61 10-82.49 4.58-84.19 0-168.39 0-69.6 0-79.27 18.87-139.2 0-30.07-9.47-15.81-56.67-40.8-56.67-34.64 0-34.54 42.84-78.46 56.67-46.08 14.51-50.77 0-101.54 0H360 180c-90 0-131.28 41.28-180 0-41.28-34.99-37.41-145.06 0-152.54C52.59 556.94 111.06 691.97 180 684c49.86-5.76 57.6-75.13 57.6-144 0-45.49-15.94-80.34-57.6-84.71-77.14-8.09-130.48 86-180 59.79-40.48-21.43 0-77.54 0-155.08V180C0 90-45 45 0 0s90 0 180 0h180 180 180c61.66 0 112.69-35.12 123.33 0"/><path d="M540 318.29c-24.73 0-42.75 17.25-42.75 41.71 0 39.15 14.44 85.5 42.75 85.5 35.81 0 85.5-49.9 85.5-85.5 0-28.01-46.11-41.71-85.5-41.71M0 65C12.63 26.12 20.83 13.6 58.5 0c52.33-18.9 60.75 0 121.5 0 73.63 0 76.29-8.69 147.27 0 19.02 2.33 14.18 22.04 32.73 22.04 51.82 0 53.56-15.37 108-22.04 35.56-4.35 36 0 72 0h180c20 0 40-12.36 40 0 0 27.64-19.83 40.08-40 80-25.3 50.08-12.95 61.29-50.94 100-52.01 53-69.05 36.04-129.06 83.41-54.02 42.63-94.02 39.2-99 96.59-7.02 80.91 77.23 90.83 75 180-2.27 90.83-26.75 113.94-84 180-20.75 23.94-36 0-72 0-8.57 0-14.5 7.61-17.14 0-28.56-82.39-6.97-97.03-45.26-180-43.14-93.5-40.88-148.67-117.6-172.94-72.08-22.8-117.37 81.25-180 78.79-27.37-1.07 0-42.93 0-85.85V180c0-57.5-16.62-63.88 0-115m1004.1 115c32.52-47.66 37.82-87.5 75.9-87.5 38.28 0 52.51 36.14 76.83 87.5 39.01 82.39 40 88.42 49.84 180 9.5 88.42-28.67 98.34-11.15 180 9.14 42.62 30.08 68.57 64.48 68.57 39.38 0 65.14-22.11 83.08-68.57 30.06-77.83-18.65-105.87 12.92-180 16.89-39.65 41.22-25.24 84-47.55 89.22-46.52 126.55-104.22 180-90.1 36.55 9.66 0 68.82 0 137.65v180c0 71.47 39.8 109.17 0 142.94-50.2 42.59-95.71-5.79-180 9.79-15.94 2.95-4.61 24.87-20.45 27.27-74.16 11.23-79.77 0-159.55 0-51.62 0-58.75 17.92-103.24 0-45.51-18.33-37.55-72.5-76.76-72.5-41.26 0-35.86 53.04-84.19 72.5-41.67 16.79-47.91 0-95.81 0-39.6 0-50.88 22.03-79.2 0-61.68-47.97-35.88-90.45-100.8-140-52.98-40.45-135-2.86-135-40 0-50.36 57.08-84.73 135-135 61.58-39.73 71.41-25.37 144-45 17.41-4.71 25.48 9.85 36-3.67 59.53-76.48 46.62-92.08 104.1-176.33M1440 54.64c-31.33 0-63.75-39.11-63.75-54.64 0-11.79 31.88 0 63.75 0 29.43 0 58.85-11.55 58.85 0 0 15.77-28.88 54.64-58.85 54.64M0 643.73c32 0 102.27 55.1 102.27 76.27 0 16.97-72.98 21.84-102.27 0-21.84-16.29-19.13-76.27 0-76.27"/><path d="M15.65 180C86.88 86.28 91.82 86.72 171 0c3-3.28 4.5 0 9 0 5.45 0 6.34-2.89 10.91 0 85.43 54.05 76.4 84.36 169.09 113.88 81.85 26.07 102.93-25.43 180-2.7 35 10.33 44.15 39.19 44.15 68.82 0 19.05-24.7 10.98-44.15 28.54-80.25 72.44-107.82 61.11-155.25 151.46-39.57 75.38-7 90.97-18.75 180-.62 4.72-3.69 7.5-6 7.5-1.89 0-1.23-3.74-2.4-7.5-27.95-89.99-6.95-104.56-55.84-180-39.91-61.6-59.11-94.09-121.76-94.09-69.61 0-70.09 49.4-142.76 94.09C19.91 370.66 13.23 376.62 0 376.62c-5.39 0 0-8.31 0-16.62 0-67.5-5.78-68.48 0-135 2.04-23.48 1.38-26.22 15.65-45m1042.66 0c4.8-15.57 10.81-25 21.69-25 10.94 0 18.59 9.1 21.95 25 18.31 86.6 14.76 89.7 21.38 180 6.58 89.7 20.88 97.69 5.03 180-5.81 30.19-19.59 45-48.36 45-57.72 0-111.64 1.19-124.62-45-18.64-66.31 35.27-88.69 61.38-180 25.36-88.69 14.73-93.07 41.55-180M1605 360c6.14-5 9.37-5.29 15-5.29 1.87 0 0 2.65 0 5.29v180c0 5.3 5 10.14 0 10.59-85 7.73-94.06 10.55-180 5.77-9.25-.51-10.38-7.39-10.38-16.36 0-18.49-3.23-24.6 10.38-38.57 74.08-76.03 81.14-73.07 165-141.43M880.8 720c0-37.23 8.65-90 19.2-90 10.66 0 23.23 54 23.23 90 0 9-11.61 0-23.23 0-9.6 0-19.2 7.77-19.2 0m342.14 0c0-11.91 16.38-40 37.06-40 26.49 0 57.27 29.01 57.27 40 0 9.01-28.63 0-57.27 0-18.53 0-37.06 8.09-37.06 0"/></g></g><defs><mask id="A"><path fill="#fff" d="M0 0h1500v720H0z"/></mask></defs></svg>

<svg xmlns="http://www.w3.org/2000/svg" version="1.1" xmlns:xlink="http://www.w3.org/1999/xlink" xmlns:svgjs="http://svgjs.dev/svgjs" width="1500" height="720" preserveAspectRatio="none" viewBox="0 0 1500 720"><g mask="url(&quot;#SvgjsMask1021&quot;)" fill="none"><rect width="1500" height="720" x="0" y="0" fill="rgba(255, 255, 255, 1)"></rect><path d="M843.33 0C859.96 54.88 758.68 105.91 774.55 180C787.01 238.15 846.83 264.49 900 264.49C934.49 264.49 920.12 218.77 949.88 180C1010.12 101.53 1014.71 30 1080 30C1145.63 30 1158.27 97.54 1211.71 180C1248.27 236.41 1213.28 298.01 1260 307.74C1327.42 321.78 1351.6 270.77 1440 227.55C1482.25 206.9 1521.29 203.29 1521.29 180C1521.29 157.02 1476.93 162.84 1440 135C1357.54 72.84 1282.5 38.37 1282.5 0C1282.5 -29.13 1361.25 0 1440 0C1512.69 0 1526.04 -21.98 1585.38 0C1616.04 11.36 1613.1 30.79 1620 66.67C1630.41 120.79 1620 123.34 1620 180C1620 270 1620 270 1620 360C1620 450 1620 450 1620 540C1620 630 1665 675 1620 720C1575 765 1530 720 1440 720C1350 720 1350 720 1260 720C1175.3 720 1173.46 724.6 1090.59 720C1083.46 719.6 1085.41 710 1080 710C1074.31 710 1075.9 719.58 1068.39 720C985.9 724.58 984.2 720 900 720C830.4 720 820.73 738.87 760.8 720C730.73 710.53 744.99 663.33 720 663.33C685.36 663.33 685.46 706.17 641.54 720C595.46 734.51 590.77 720 540 720C450 720 450 720 360 720C270 720 270 720 180 720C90 720 48.72 761.28 0 720C-41.28 685.01 -37.41 574.94 0 567.46C52.59 556.94 111.06 691.97 180 684C229.86 678.24 237.6 608.87 237.6 540C237.6 494.51 221.66 459.66 180 455.29C102.86 447.2 49.52 541.29 0 515.08C-40.48 493.65 0 437.54 0 360C0 270 0 270 0 180C0 90 -45 45 0 0C45 -45 90 0 180 0C270 0 270 0 360 0C450 0 450 0 540 0C630 0 630 0 720 0C781.66 0 832.69 -35.12 843.33 0" stroke="rgba(83, 86, 255, 0.57)" stroke-width="2"></path><path d="M540 318.29C515.27 318.29 497.25 335.54 497.25 360C497.25 399.15 511.69 445.5 540 445.5C575.81 445.5 625.5 395.6 625.5 360C625.5 331.99 579.39 318.29 540 318.29" stroke="rgba(83, 86, 255, 0.57)" stroke-width="2"></path><path d="M0 65C12.63 26.12 20.83 13.6 58.5 0C110.83 -18.9 119.25 0 180 0C253.63 0 256.29 -8.69 327.27 0C346.29 2.33 341.45 22.04 360 22.04C411.82 22.04 413.56 6.67 468 0C503.56 -4.35 504 0 540 0C630 0 630 0 720 0C740 0 760 -12.36 760 0C760 27.64 740.17 40.08 720 80C694.7 130.08 707.05 141.29 669.06 180C617.05 233 600.01 216.04 540 263.41C485.98 306.04 445.98 302.61 441 360C433.98 440.91 518.23 450.83 516 540C513.73 630.83 489.25 653.94 432 720C411.25 743.94 396 720 360 720C351.43 720 345.5 727.61 342.86 720C314.3 637.61 335.89 622.97 297.6 540C254.46 446.5 256.72 391.33 180 367.06C107.92 344.26 62.63 448.31 0 445.85C-27.37 444.78 0 402.92 0 360C0 270 0 270 0 180C0 122.5 -16.62 116.12 0 65" stroke="rgba(83, 86, 255, 0.57)" stroke-width="2"></path><path d="M1004.1 180C1036.62 132.34 1041.92 92.5 1080 92.5C1118.28 92.5 1132.51 128.64 1156.83 180C1195.84 262.39 1196.83 268.42 1206.67 360C1216.17 448.42 1178 458.34 1195.52 540C1204.66 582.62 1225.6 608.57 1260 608.57C1299.38 608.57 1325.14 586.46 1343.08 540C1373.14 462.17 1324.43 434.13 1356 360C1372.89 320.35 1397.22 334.76 1440 312.45C1529.22 265.93 1566.55 208.23 1620 222.35C1656.55 232.01 1620 291.17 1620 360C1620 450 1620 450 1620 540C1620 611.47 1659.8 649.17 1620 682.94C1569.8 725.53 1524.29 677.15 1440 692.73C1424.06 695.68 1435.39 717.6 1419.55 720C1345.39 731.23 1339.78 720 1260 720C1208.38 720 1201.25 737.92 1156.76 720C1111.25 701.67 1119.21 647.5 1080 647.5C1038.74 647.5 1044.14 700.54 995.81 720C954.14 736.79 947.9 720 900 720C860.4 720 849.12 742.03 820.8 720C759.12 672.03 784.92 629.55 720 580C667.02 539.55 585 577.14 585 540C585 489.64 642.08 455.27 720 405C781.58 365.27 791.41 379.63 864 360C881.41 355.29 889.48 369.85 900 356.33C959.53 279.85 946.62 264.25 1004.1 180" stroke="rgba(83, 86, 255, 0.57)" stroke-width="2"></path><path d="M1440 54.64C1408.67 54.64 1376.25 15.53 1376.25 0C1376.25 -11.79 1408.13 0 1440 0C1469.43 0 1498.85 -11.55 1498.85 0C1498.85 15.77 1469.97 54.64 1440 54.64" stroke="rgba(83, 86, 255, 0.57)" stroke-width="2"></path><path d="M0 643.73C32 643.73 102.27 698.83 102.27 720C102.27 736.97 29.29 741.84 0 720C-21.84 703.71 -19.13 643.73 0 643.73" stroke="rgba(83, 86, 255, 0.57)" stroke-width="2"></path><path d="M15.65 180C86.88 86.28 91.82 86.72 171 0C174 -3.28 175.5 0 180 0C185.45 0 186.34 -2.89 190.91 0C276.34 54.05 267.31 84.36 360 113.88C441.85 139.95 462.93 88.45 540 111.18C575 121.51 584.15 150.37 584.15 180C584.15 199.05 559.45 190.98 540 208.54C459.75 280.98 432.18 269.65 384.75 360C345.18 435.38 377.75 450.97 366 540C365.38 544.72 362.31 547.5 360 547.5C358.11 547.5 358.77 543.76 357.6 540C329.65 450.01 350.65 435.44 301.76 360C261.85 298.4 242.65 265.91 180 265.91C110.39 265.91 109.91 315.31 37.24 360C19.91 370.66 13.23 376.62 0 376.62C-5.39 376.62 0 368.31 0 360C0 292.5 -5.78 291.52 0 225C2.04 201.52 1.38 198.78 15.65 180" stroke="rgba(83, 86, 255, 0.57)" stroke-width="2"></path><path d="M1058.31 180C1063.11 164.43 1069.12 155 1080 155C1090.94 155 1098.59 164.1 1101.95 180C1120.26 266.6 1116.71 269.7 1123.33 360C1129.91 449.7 1144.21 457.69 1128.36 540C1122.55 570.19 1108.77 585 1080 585C1022.28 585 968.36 586.19 955.38 540C936.74 473.69 990.65 451.31 1016.76 360C1042.12 271.31 1031.49 266.93 1058.31 180" stroke="rgba(83, 86, 255, 0.57)" stroke-width="2"></path><path d="M1605 360C1611.14 355 1614.37 354.71 1620 354.71C1621.87 354.71 1620 357.36 1620 360C1620 450 1620 450 1620 540C1620 545.3 1625 550.14 1620 550.59C1535 558.32 1525.94 561.14 1440 556.36C1430.75 555.85 1429.62 548.97 1429.62 540C1429.62 521.51 1426.39 515.4 1440 501.43C1514.08 425.4 1521.14 428.36 1605 360" stroke="rgba(83, 86, 255, 0.57)" stroke-width="2"></path><path d="M880.8 720C880.8 682.77 889.45 630 900 630C910.66 630 923.23 684 923.23 720C923.23 729 911.62 720 900 720C890.4 720 880.8 727.77 880.8 720" stroke="rgba(83, 86, 255, 0.57)" stroke-width="2"></path><path d="M1222.94 720C1222.94 708.09 1239.32 680 1260 680C1286.49 680 1317.27 709.01 1317.27 720C1317.27 729.01 1288.64 720 1260 720C1241.47 720 1222.94 728.09 1222.94 720" stroke="rgba(83, 86, 255, 0.57)" stroke-width="2"></path></g><defs><mask id="SvgjsMask1021"><rect width="1500" height="720" fill="#ffffff"></rect></mask></defs></svg>
